assets/logos/AR/cash3evening.svg

<svg width="781" height="216" viewBox="0 0 781 216" fill="none" xmlns="http://www.w3.org/2000/svg">
<path d="M109.1 139.31C105.5 141.76 102.35 144.42 98.7799 146.25C88.6399 151.41 78.3999 154.89 66.3899 152.02C57.3899 149.87 51.1299 144.76 44.9399 138.84C36.6799 122.84 36.5099 106.48 42.9999 89.89C44.0985 89.1211 45.1051 88.2286 45.9999 87.23C55.2599 74.08 68.0899 69.89 84.1499 72.88C92.6699 74.48 98.9199 79.22 103.92 82.78C112.07 74.78 119.6 67.33 127.54 59.49C117.83 49.08 105.43 42.8 90.3699 39.89C70.2599 36 51.6399 38.83 34.2099 48.76C19.0499 57.39 8.93988 70.3 4.99988 87.53C-1.45012 99.32 -0.860119 120.06 2.35988 133.33C3.18369 136.051 4.16535 138.723 5.29988 141.33C8.13286 153.022 15.0034 163.339 24.6999 170.46C48.9799 188.64 75.8999 190.21 103.79 181.8C114.04 178.71 124.02 173.62 130.51 163.71C123.21 155.43 116.25 147.49 109.1 139.31Z" fill="url(#paint0_linear_4007_4081)"/>
<path d="M391.68 102.31C385.22 99.56 378.28 97.87 371.47 96.06C361.06 93.29 343.93 92 339.88 89.31C336.88 87.31 336.18 82.25 337.2 78.74C338.34 74.81 342.08 72.74 344.59 71.74C356.93 67 375.48 70.89 389.41 79.65L408.65 53.74C406.766 52.9794 404.938 52.0872 403.18 51.07C390.45 42.23 375.82 39.33 360.81 38.46C354.09 38.07 347.26 39.56 340.49 40.31C327.42 41.74 315.84 46.75 307.58 56.94C299.32 67.13 295.93 83 301.27 97.81C306.27 111.72 317.41 119.34 331.27 122.67C340.43 124.87 349.92 125.9 359.27 126.96C371.1 128.3 377.57 133.42 378.81 143.22C373.26 152.46 363.81 153.93 354.66 153.28C340.23 152.28 326.43 148.33 315.32 137.19L295 162C304.43 172.67 314.5 180.13 327.25 183.5C347.35 188.83 367.46 188.63 386.96 181.43C403.47 175.34 414.89 164.31 416.27 145.61C419.66 125.82 408 109.24 391.68 102.31Z" fill="url(#paint1_linear_4007_4081)"/>
<path d="M274.76 137.4C267.32 120.847 259.876 104.3 252.43 87.7601C250.36 82.4401 248.43 77.0701 246.18 71.8201C241.71 61.3101 237.08 50.8201 232.72 40.8701H194C190.37 48.8701 186.61 56.7501 183.17 64.7801C179.06 74.3901 175.22 84.1201 171.26 93.7801C167.26 102.21 163 110.56 159.18 119.08C156.58 124.89 154.54 130.95 152.25 136.9C144.38 151.35 138.31 166.56 131.81 182.07H172.55L181.23 160.07H244.4C247.4 167.62 250.4 175.07 253.5 182.61C260.57 182.61 267.11 182.61 273.66 182.61C280.37 182.61 287.11 182.82 294.78 182.37L274.76 137.4ZM194.76 126.27L204.76 98.1901L213 80.8601L217.36 89.8601C221.73 101.69 226.11 113.52 230.82 126.28L194.76 126.27Z" fill="url(#paint2_linear_4007_4081)"/>
<path d="M516.44 91.9299L515.44 95.3999H465C464.69 93.8699 464.49 92.8699 464.29 91.8699V42.9299H427.08V91.9299L427.15 135.26V182H464.25V135.2C464.55 133.29 464.86 131.38 465.13 129.66H515.77C516.05 132.66 516.28 134.96 516.51 137.32V182.69C523.28 182.69 529.4 182.87 535.51 182.64C541.62 182.41 547.71 183.74 553.51 181.76V137.28V91.8899V42.9399H516.41L516.44 91.9299Z" fill="url(#paint3_linear_4007_4081)"/>
<path d="M672.93 216C732.576 216 780.93 167.647 780.93 108C780.93 48.3532 732.576 0 672.93 0C613.283 0 564.93 48.3532 564.93 108C564.93 167.647 613.283 216 672.93 216Z" fill="url(#paint4_radial_4007_4081)"/>
<path d="M678.93 200.5C662.811 200.5 647.053 195.72 633.651 186.765C620.248 177.809 609.802 165.081 603.634 150.189C597.465 135.297 595.851 118.91 598.996 103.1C602.14 87.2907 609.903 72.7688 621.301 61.3708C632.699 49.9729 647.22 42.2107 663.03 39.066C678.839 35.9213 695.226 37.5353 710.118 43.7039C725.011 49.8724 737.739 60.3185 746.695 73.7211C755.65 87.1237 760.43 102.881 760.43 119C760.406 140.608 751.812 161.324 736.533 176.603C721.254 191.882 700.538 200.476 678.93 200.5ZM678.93 38.5C663.008 38.5 647.445 43.2213 634.206 52.0667C620.968 60.9122 610.65 73.4846 604.557 88.194C598.465 102.903 596.87 119.089 599.977 134.705C603.083 150.32 610.75 164.664 622.008 175.922C633.266 187.18 647.61 194.847 663.225 197.953C678.84 201.059 695.026 199.465 709.736 193.372C724.445 187.279 737.018 176.962 745.863 163.723C754.708 150.485 759.43 134.921 759.43 119C759.406 97.6574 750.917 77.1958 735.826 62.1043C720.734 47.0127 700.272 38.5239 678.93 38.5Z" fill="white"/>
<path d="M675.93 200C719.008 200 753.93 164.407 753.93 120.5C753.93 76.5934 719.008 41 675.93 41C632.851 41 597.93 76.5934 597.93 120.5C597.93 164.407 632.851 200 675.93 200Z" fill="url(#paint5_linear_4007_4081)"/>
<path d="M673.36 195.13C715.096 195.13 748.93 160.647 748.93 118.11C748.93 75.5731 715.096 41.0901 673.36 41.0901C631.624 41.0901 597.79 75.5731 597.79 118.11C597.79 160.647 631.624 195.13 673.36 195.13Z" fill="url(#paint6_linear_4007_4081)"/>
<path d="M711.24 123.93C722.63 118.05 727.9 109.39 726.24 97.03C726.096 95.324 726.043 93.6117 726.08 91.9C722.26 83.0691 715.377 75.9164 706.7 71.76C694.63 65.95 681.95 64.14 668.7 65.07C660.98 65.61 654.01 67.85 648.13 73.07C646.031 74.7286 643.819 76.2389 641.51 77.59C639.87 83.45 633.86 88.44 637.71 95.59L663.71 98.59C672.46 87.41 684.79 87.31 694.71 97.59C695.27 101.71 695.9 105.88 690.42 108.38C686.17 108.38 681.33 108.65 676.53 108.31C671.73 107.97 667.25 107.03 662.53 106.31C658.74 113.85 659.07 121.05 660.08 128.25L683.48 131.59L690.56 136.59V146.91L685 151.52C666.19 152.52 661.54 150.04 658.35 137.68C651.64 135.1 634.1 133.3 627.9 134.84C628.72 140.41 629.55 146.07 630.38 151.72C635.99 162.72 645.24 169.02 656.71 173.21C667.78 177.21 679.06 177.28 690.35 176.35C707.03 174.98 722.35 166.35 724.05 145.52C722.46 136.89 718.82 129.4 711.24 123.93Z" fill="white"/>
<defs>
<linearGradient id="paint0_linear_4007_4081" x1="65.2499" y1="186.74" x2="65.2499" y2="38.21" gradientUnits="userSpaceOnUse">
<stop stop-color="#00ADE5"/>
<stop offset="1" stop-color="#79D6F7"/>
</linearGradient>
<linearGradient id="paint1_linear_4007_4081" x1="355.96" y1="187.15" x2="355.96" y2="38.39" gradientUnits="userSpaceOnUse">
<stop stop-color="#00ADE5"/>
<stop offset="1" stop-color="#79D6F7"/>
</linearGradient>
<linearGradient id="paint2_linear_4007_4081" x1="213.29" y1="182.67" x2="213.29" y2="40.8701" gradientUnits="userSpaceOnUse">
<stop stop-color="#00ADE5"/>
<stop offset="1" stop-color="#79D6F7"/>
</linearGradient>
<linearGradient id="paint3_linear_4007_4081" x1="490.31" y1="182.87" x2="490.31" y2="42.9299" gradientUnits="userSpaceOnUse">
<stop stop-color="#00ADE5"/>
<stop offset="1" stop-color="#79D6F7"/>
</linearGradient>
<radialGradient id="paint4_radial_4007_4081" cx="0" cy="0" r="1" gradientUnits="userSpaceOnUse" gradientTransform="translate(672.93 108) scale(108)">
<stop stop-color="white"/>
<stop offset="0.32" stop-color="#FDFEFF"/>
<stop offset="0.46" stop-color="#F6FDFF"/>
<stop offset="0.56" stop-color="#E9FAFE"/>
<stop offset="0.64" stop-color="#D7F5FD"/>
<stop offset="0.72" stop-color="#C0EFFC"/>
<stop offset="0.78" stop-color="#A4E8FA"/>
<stop offset="0.85" stop-color="#82E0F9"/>
<stop offset="0.9" stop-color="#5AD6F7"/>
<stop offset="0.95" stop-color="#2FCBF4"/>
<stop offset="1" stop-color="#00BFF2"/>
</radialGradient>
<linearGradient id="paint5_linear_4007_4081" x1="675.93" y1="200" x2="675.93" y2="41" gradientUnits="userSpaceOnUse">
<stop stop-color="#CDDD50"/>
<stop offset="0.11" stop-color="#DDE88A"/>
<stop offset="0.23" stop-color="#ECF2BC"/>
<stop offset="0.33" stop-color="#F6F9E0"/>
<stop offset="0.41" stop-color="#FDFDF7"/>
<stop offset="0.46" stop-color="white"/>
<stop offset="0.53" stop-color="#FEFEFA"/>
<stop offset="0.61" stop-color="#F9FBEB"/>
<stop offset="0.7" stop-color="#F2F6D3"/>
<stop offset="0.8" stop-color="#E9F0B1"/>
<stop offset="0.9" stop-color="#DCE785"/>
<stop offset="1" stop-color="#CDDD50"/>
</linearGradient>
<linearGradient id="paint6_linear_4007_4081" x1="673.36" y1="195.13" x2="673.36" y2="41.0901" gradientUnits="userSpaceOnUse">
<stop stop-color="#00B0E7"/>
<stop offset="0.03" stop-color="#06B2E8"/>
<stop offset="0.21" stop-color="#28BCEC"/>
<stop offset="0.4" stop-color="#43C5F0"/>
<stop offset="0.59" stop-color="#56CAF2"/>
<stop offset="0.79" stop-color="#61CEF4"/>
<stop offset="1" stop-color="#65CFF4"/>
</linearGradient>
</defs>
</svg>

<svg xmlns="http://www.w3.org/2000/svg" xmlns:xlink="http://www.w3.org/1999/xlink" viewBox="0 0 780.93 216"><defs><style>.cls-1{fill:#68d0f4;}.cls-2{fill:url(#New_Gradient_Swatch_1);}.cls-3{fill:url(#New_Gradient_Swatch_1-2);}.cls-4{fill:none;}.cls-5{fill:url(#New_Gradient_Swatch_1-3);}.cls-6{fill:url(#New_Gradient_Swatch_1-4);}.cls-7{fill:#3bc0ed;}.cls-8{fill:url(#radial-gradient);}.cls-9{fill:url(#linear-gradient);}.cls-10{fill:#fff;}.cls-11{fill:url(#linear-gradient-2);}.cls-12{fill:url(#linear-gradient-3);}</style><linearGradient id="New_Gradient_Swatch_1" x1="65.25" y1="186.74" x2="65.25" y2="38.21" gradientUnits="userSpaceOnUse"><stop offset="0" stop-color="#00ade5"/><stop offset="1" stop-color="#79d6f7"/></linearGradient><linearGradient id="New_Gradient_Swatch_1-2" x1="355.96" y1="187.15" x2="355.96" y2="38.39" xlink:href="#New_Gradient_Swatch_1"/><linearGradient id="New_Gradient_Swatch_1-3" x1="213.29" y1="182.67" x2="213.29" y2="40.87" xlink:href="#New_Gradient_Swatch_1"/><linearGradient id="New_Gradient_Swatch_1-4" x1="490.31" y1="182.87" x2="490.31" y2="42.93" xlink:href="#New_Gradient_Swatch_1"/><radialGradient id="radial-gradient" cx="672.93" cy="108" r="108" gradientUnits="userSpaceOnUse"><stop offset="0" stop-color="#fff"/><stop offset="0.32" stop-color="#fdfeff"/><stop offset="0.46" stop-color="#f6fdff"/><stop offset="0.56" stop-color="#e9fafe"/><stop offset="0.64" stop-color="#d7f5fd"/><stop offset="0.72" stop-color="#c0effc"/><stop offset="0.78" stop-color="#a4e8fa"/><stop offset="0.85" stop-color="#82e0f9"/><stop offset="0.9" stop-color="#5ad6f7"/><stop offset="0.95" stop-color="#2fcbf4"/><stop offset="1" stop-color="#00bff2"/></radialGradient><linearGradient id="linear-gradient" x1="678.93" y1="200" x2="678.93" y2="38" gradientUnits="userSpaceOnUse"><stop offset="0" stop-color="#fff"/><stop offset="0.09" stop-color="#f3fbfe"/><stop offset="0.25" stop-color="#d3f2fb"/><stop offset="0.46" stop-color="#a0e2f7"/><stop offset="0.71" stop-color="#58cdf1"/><stop offset="1" stop-color="#00b2ea"/></linearGradient><linearGradient id="linear-gradient-2" x1="675.93" y1="200" x2="675.93" y2="41" gradientUnits="userSpaceOnUse"><stop offset="0" stop-color="#cddd50"/><stop offset="0.11" stop-color="#dde88a"/><stop offset="0.23" stop-color="#ecf2bc"/><stop offset="0.33" stop-color="#f6f9e0"/><stop offset="0.41" stop-color="#fdfdf7"/><stop offset="0.46" stop-color="#fff"/><stop offset="0.53" stop-color="#fefefa"/><stop offset="0.61" stop-color="#f9fbeb"/><stop offset="0.7" stop-color="#f2f6d3"/><stop offset="0.8" stop-color="#e9f0b1"/><stop offset="0.9" stop-color="#dce785"/><stop offset="1" stop-color="#cddd50"/></linearGradient><linearGradient id="linear-gradient-3" x1="673.36" y1="195.13" x2="673.36" y2="41.09" gradientUnits="userSpaceOnUse"><stop offset="0" stop-color="#00b0e7"/><stop offset="0.03" stop-color="#06b2e8"/><stop offset="0.21" stop-color="#28bcec"/><stop offset="0.4" stop-color="#43c5f0"/><stop offset="0.59" stop-color="#56caf2"/><stop offset="0.79" stop-color="#61cef4"/><stop offset="1" stop-color="#65cff4"/></linearGradient></defs><g id="Layer_2" data-name="Layer 2"><g id="Layer_1-2" data-name="Layer 1"><path class="cls-1" d="M780,112.49a14.85,14.85,0,0,1-1.75.29l-.16-17A5.85,5.85,0,0,0,780,96Z"/><path class="cls-2" d="M109.1,139.31c-3.6,2.45-6.75,5.11-10.32,6.94-10.14,5.16-20.38,8.64-32.39,5.77-9-2.15-15.26-7.26-21.45-13.18-8.26-16-8.43-32.36-1.94-48.95a17.5,17.5,0,0,0,3-2.66c9.26-13.15,22.09-17.34,38.15-14.35,8.52,1.6,14.77,6.34,19.77,9.9,8.15-8,15.68-15.45,23.62-23.29-9.71-10.41-22.11-16.69-37.17-19.6C70.26,36,51.64,38.83,34.21,48.76,19.05,57.39,8.94,70.3,5,87.53c-6.45,11.79-5.86,32.53-2.64,45.8a73.21,73.21,0,0,0,2.94,8,51.06,51.06,0,0,0,19.4,29.13c24.28,18.18,51.2,19.75,79.09,11.34,10.25-3.09,20.23-8.18,26.72-18.09C123.21,155.43,116.25,147.49,109.1,139.31Z"/><path class="cls-3" d="M391.68,102.31c-6.46-2.75-13.4-4.44-20.21-6.25-10.41-2.77-27.54-4.06-31.59-6.75-3-2-3.7-7.06-2.68-10.57,1.14-3.93,4.88-6,7.39-7,12.34-4.74,30.89-.85,44.82,7.91l19.24-25.91a43.29,43.29,0,0,1-5.47-2.67c-12.73-8.84-27.36-11.74-42.37-12.61-6.72-.39-13.55,1.1-20.32,1.85-13.07,1.43-24.65,6.44-32.91,16.63S295.93,83,301.27,97.81c5,13.91,16.14,21.53,30,24.86,9.16,2.2,18.65,3.23,28,4.29,11.83,1.34,18.3,6.46,19.54,16.26-5.55,9.24-15,10.71-24.15,10.06-14.43-1-28.23-4.95-39.34-16.09L295,162c9.43,10.67,19.5,18.13,32.25,21.5,20.1,5.33,40.21,5.13,59.71-2.07,16.51-6.09,27.93-17.12,29.31-35.82C419.66,125.82,408,109.24,391.68,102.31Z"/><path class="cls-4" d="M204.79,98.19l-10,28.08h36c-4.71-12.76-9.09-24.59-13.46-36.42l-4.36-9Z"/><path class="cls-4" d="M204.79,98.19l-10,28.08h36c-4.71-12.76-9.09-24.59-13.46-36.42l-4.36-9Z"/><path class="cls-5" d="M274.76,137.4q-11.16-24.83-22.33-49.64c-2.07-5.32-4-10.69-6.25-15.94-4.47-10.51-9.1-21-13.46-30.95H194c-3.63,8-7.39,15.88-10.83,23.91-4.11,9.61-7.95,19.34-11.91,29-4,8.43-8.26,16.78-12.08,25.3-2.6,5.81-4.64,11.87-6.93,17.82-7.87,14.45-13.94,29.66-20.44,45.17h40.74l8.68-22H244.4c3,7.55,6,15,9.1,22.54,7.07,0,13.61,0,20.16,0,6.71,0,13.45.21,21.12-.24Zm-80-11.13,10-28.08L213,80.86l4.36,9c4.37,11.83,8.75,23.66,13.46,36.42Z"/><path class="cls-6" d="M516.44,91.93l-1,3.47H465c-.31-1.53-.51-2.53-.71-3.53V42.93H427.08v49l.07,43.33V182h37.1V135.2c.3-1.91.61-3.82.88-5.54h50.64c.28,3,.51,5.3.74,7.66v45.37c6.77,0,12.89.18,19-.05s12.2,1.1,18-.88V137.28h0l0-45.39V42.94h-37.1Z"/><path class="cls-7" d="M740.69,71.33c.1-.92.21-1.85.32-2.77l1.75,2.53Z"/><circle class="cls-8" cx="672.93" cy="108" r="108"/><circle class="cls-9" cx="678.93" cy="119" r="81"/><path class="cls-10" d="M678.93,200.5a81.5,81.5,0,1,1,81.5-81.5A81.59,81.59,0,0,1,678.93,200.5Zm0-162a80.5,80.5,0,1,0,80.5,80.5A80.59,80.59,0,0,0,678.93,38.5Z"/><ellipse class="cls-11" cx="675.93" cy="120.5" rx="78" ry="79.5"/><ellipse class="cls-12" cx="673.36" cy="118.11" rx="75.57" ry="77.02"/><path class="cls-10" d="M711.24,123.93c11.39-5.88,16.66-14.54,15-26.9a48.67,48.67,0,0,1-.16-5.13h0A39.89,39.89,0,0,0,706.7,71.76c-12.07-5.81-24.75-7.62-38-6.69-7.72.54-14.69,2.78-20.57,8a57.61,57.61,0,0,1-6.62,4.52c-1.64,5.86-7.65,10.85-3.8,18l26,3c8.75-11.18,21.08-11.28,31-1,.56,4.12,1.19,8.29-4.29,10.79-4.25,0-9.09.27-13.89-.07s-9.28-1.28-14-2c-3.79,7.54-3.46,14.74-2.45,21.94l23.4,3.34,7.08,5v10.32L685,151.52c-18.81,1-23.46-1.48-26.65-13.84-6.71-2.58-24.25-4.38-30.45-2.84.82,5.57,1.65,11.23,2.48,16.88,5.61,11,14.86,17.3,26.33,21.49,11.07,4,22.35,4.07,33.64,3.14,16.68-1.37,32-10,33.7-30.83C722.46,136.89,718.82,129.4,711.24,123.93Z"/></g></g></svg>
